packages/foundations/icons/Business/Postpone.svg

<svg width="24" height="24" viewBox="0 0 24 24" fill="none" xmlns="http://www.w3.org/2000/svg">
<path fill-rule="evenodd" clip-rule="evenodd" d="M12 1C14.5971 1 17.0528 1.90522 19.0003 3.51439L19.0002 2.5C19.0002 1.94772 19.448 1.5 20.0002 1.5C20.5131 1.5 20.9358 1.88604 20.9935 2.38338L21.0002 2.5V6C21.0002 6.51284 20.6142 6.93551 20.1169 6.99327L20.0002 7H16.5002C15.948 7 15.5002 6.55228 15.5002 6C15.5002 5.48716 15.8863 5.06449 16.3836 5.00673L16.5002 5L17.6587 5.00077C16.0761 3.71873 14.0959 3 12 3C7.02944 3 3 7.02944 3 12C3 16.9706 7.02944 21 12 21C15.5862 21 18.7855 18.8836 20.2225 15.6653C20.4477 15.161 21.0391 14.9348 21.5434 15.1599C22.0477 15.3851 22.2739 15.9765 22.0488 16.4808C20.2928 20.4132 16.3825 23 12 23C5.92487 23 1 18.0751 1 12C1 5.92487 5.92487 1 12 1ZM11 7C11.5523 7 12 7.44772 12 8V12.5858L14.7071 15.2929C15.0976 15.6834 15.0976 16.3166 14.7071 16.7071C14.3166 17.0976 13.6834 17.0976 13.2929 16.7071L10 13.4142V8C10 7.44772 10.4477 7 11 7Z" fill="#3D474D"/>
</svg>

<svg width="24" height="24" fill="none" xmlns="http://www.w3.org/2000/svg"><path fill-rule="evenodd" clip-rule="evenodd" d="M12 1c2.597 0 5.053.905 7 2.514V2.5a1 1 0 011.994-.117L21 2.5V6a1 1 0 01-.883.993L20 7h-3.5a1 1 0 01-.116-1.993L16.5 5h1.159A8.96 8.96 0 0012 3a9 9 0 108.223 12.665 1 1 0 011.826.816A11.001 11.001 0 0112 23C5.925 23 1 18.075 1 12S5.925 1 12 1zm-1 6a1 1 0 011 1v4.586l2.707 2.707a1 1 0 01-1.414 1.414L10 13.414V8a1 1 0 011-1z" fill="#3D474D"/></svg>
